modules/linearicons/icons/home.svg

<?xml version="1.0" encoding="utf-8"?>
<!-- Generated by IcoMoon.io -->
<!DOCTYPE svg PUBLIC "-//W3C//DTD SVG 1.1//EN" "http://www.w3.org/Graphics/SVG/1.1/DTD/svg11.dtd">
<svg version="1.1" xmlns="http://www.w3.org/2000/svg" xmlns:xlink="http://www.w3.org/1999/xlink" width="20" height="20" viewBox="0 0 20 20">
<path fill="#000000" d="M19.871 12.165l-8.829-9.758c-0.274-0.303-0.644-0.47-1.042-0.47-0 0 0 0 0 0-0.397 0-0.767 0.167-1.042 0.47l-8.829 9.758c-0.185 0.205-0.169 0.521 0.035 0.706 0.096 0.087 0.216 0.129 0.335 0.129 0.136 0 0.272-0.055 0.371-0.165l2.129-2.353v8.018c0 0.827 0.673 1.5 1.5 1.5h11c0.827 0 1.5-0.673 1.5-1.5v-8.018l2.129 2.353c0.185 0.205 0.501 0.221 0.706 0.035s0.221-0.501 0.035-0.706zM12 19h-4v-4.5c0-0.276 0.224-0.5 0.5-0.5h3c0.276 0 0.5 0.224 0.5 0.5v4.5zM16 18.5c0 0.276-0.224 0.5-0.5 0.5h-2.5v-4.5c0-0.827-0.673-1.5-1.5-1.5h-3c-0.827 0-1.5 0.673-1.5 1.5v4.5h-2.5c-0.276 0-0.5-0.224-0.5-0.5v-9.123l5.7-6.3c0.082-0.091 0.189-0.141 0.3-0.141s0.218 0.050 0.3 0.141l5.7 6.3v9.123z"></path>
</svg>

<svg xmlns="http://www.w3.org/2000/svg" width="20" height="20"><path d="M19.871 12.165l-8.829-9.758A1.392 1.392 0 0 0 10 1.937c-.397 0-.767.167-1.042.47L.129 12.165a.5.5 0 0 0 .741.67l2.129-2.353V18.5c0 .827.673 1.5 1.5 1.5h11c.827 0 1.5-.673 1.5-1.5v-8.018l2.129 2.353a.499.499 0 1 0 .741-.671zM12 19H8v-4.5a.5.5 0 0 1 .5-.5h3a.5.5 0 0 1 .5.5V19zm4-.5a.5.5 0 0 1-.5.5H13v-4.5c0-.827-.673-1.5-1.5-1.5h-3c-.827 0-1.5.673-1.5 1.5V19H4.5a.5.5 0 0 1-.5-.5V9.377l5.7-6.3c.082-.091.189-.141.3-.141s.218.05.3.141l5.7 6.3V18.5z"/></svg>
